static/logos/craft-wordmark-color.svg

<svg width="72" height="24" viewBox="0 0 72 24" fill="none" xmlns="http://www.w3.org/2000/svg">
<path fill-rule="evenodd" clip-rule="evenodd" d="M12.4297 22.3301C12.4297 22.7002 12.7297 23.0002 13.0998 23.0002H22.3469C22.7169 23.0002 23.0192 22.6994 22.9961 22.33C22.6642 17.0168 18.4133 12.7657 13.0999 12.4339C12.7306 12.4108 12.4297 12.713 12.4297 13.0831V22.3301Z" fill="#254078"/>
<path fill-rule="evenodd" clip-rule="evenodd" d="M10.5676 13.1027C10.5676 12.7326 10.2676 12.4326 9.89751 12.4326H0.650444C0.280361 12.4326 -0.0218437 12.7335 0.00124037 13.1028C0.333129 18.4161 4.58409 22.6671 9.89736 22.999C10.2667 23.022 10.5676 22.7198 10.5676 22.3498V13.1027Z" fill="#254078"/>
<path fill-rule="evenodd" clip-rule="evenodd" d="M10.5676 9.89751C10.5676 10.2676 10.2676 10.5676 9.89751 10.5676H0.650444C0.280361 10.5676 -0.0218437 10.2667 0.00124037 9.89736C0.333129 4.58409 4.58409 0.333129 9.89736 0.00124037C10.2667 -0.0218437 10.5676 0.280361 10.5676 0.650444V9.89751Z" fill="#FF62FD"/>
<path fill-rule="evenodd" clip-rule="evenodd" d="M12.4297 0.670076C12.4297 0.300003 12.7297 0 13.0998 0H22.3469C22.7169 0 23.0192 0.300851 22.9961 0.670203C22.6642 5.98347 18.4133 10.2345 13.0999 10.5664C12.7306 10.5894 12.4297 10.2872 12.4297 9.91714V0.670076Z" fill="#0078FF"/>
<path d="M39.8788 12.9644C39.5728 14.265 38.9034 15.3233 37.8706 16.1393C36.8378 16.9426 35.652 17.3443 34.3132 17.3443C32.7321 17.3443 31.3869 16.796 30.2776 15.6994C29.181 14.6029 28.6328 13.2577 28.6328 11.6639C28.6328 10.0955 29.1747 8.76309 30.2585 7.66653C31.3423 6.56998 32.6683 6.0217 34.2367 6.0217C35.6137 6.0217 36.825 6.42972 37.8706 7.24576C38.9161 8.0618 39.5792 9.13923 39.8597 10.4781H36.6465C36.1875 9.4835 35.397 8.98622 34.2749 8.98622C33.5354 8.98622 32.9425 9.24761 32.4962 9.77038C32.0499 10.2932 31.8268 10.9307 31.8268 11.683C31.8268 12.448 32.0563 13.0919 32.5153 13.6147C32.9871 14.1247 33.5991 14.3797 34.3514 14.3797C35.3842 14.3797 36.1493 13.908 36.6465 12.9644H39.8788ZM46.9046 9.21573C46.0886 9.24123 45.4638 9.38787 45.0303 9.65563C44.6095 9.91064 44.3991 10.4143 44.3991 11.1666V17H41.2242V6.38509H44.2078V7.51352H44.2461C44.7561 6.51898 45.6423 6.0217 46.9046 6.0217V9.21573ZM58.8099 17H55.635V15.8524H55.5967C55.329 16.3625 54.9018 16.745 54.3153 17C53.7415 17.2423 53.1359 17.3634 52.4983 17.3634C50.9045 17.3634 49.6167 16.8215 48.6349 15.7377C47.6531 14.6539 47.1622 13.3023 47.1622 11.683C47.1622 10.1019 47.6595 8.76309 48.654 7.66653C49.6486 6.56998 50.93 6.0217 52.4983 6.0217C53.1359 6.0217 53.7352 6.14921 54.2962 6.40422C54.87 6.64648 55.3035 7.01625 55.5967 7.51352H55.635V6.38509H58.8099V17ZM55.635 11.683C55.635 10.9052 55.38 10.2613 54.87 9.75126C54.3727 9.24123 53.7352 8.98622 52.9574 8.98622C52.1923 8.98622 51.5612 9.25398 51.0639 9.78951C50.5794 10.3123 50.3371 10.9562 50.3371 11.7212C50.3371 12.4608 50.5921 13.0919 51.1021 13.6147C51.6122 14.1375 52.237 14.3989 52.9765 14.3989C53.7415 14.3989 54.3727 14.1375 54.87 13.6147C55.38 13.0919 55.635 12.448 55.635 11.683ZM71.4732 8.79496H69.9431V17H66.7682V8.79496H64.0332V17H60.8583V8.79496H59.6725V6.38509H60.8583V6.0982C60.8583 3.9306 62.2099 2.8468 64.913 2.8468H65.3912V5.23754H65.0278C64.8875 5.23754 64.7536 5.25666 64.6261 5.29491C64.4986 5.32042 64.3647 5.41605 64.2245 5.5818C64.097 5.74756 64.0332 5.96432 64.0332 6.23209V6.38509H66.7682V2.8468H69.9431V6.38509H71.4732V8.79496Z" fill="#121212"/>
</svg>

<svg xmlns="http://www.w3.org/2000/svg" width="192" height="64" fill="none" viewBox="0 0 72 24"><path fill="#254078" fill-rule="evenodd" d="M12.43 22.33c0 .37.3.67.67.67h9.247c.37 0 .672-.3.65-.67a10.589 10.589 0 0 0-9.897-9.896.64.64 0 0 0-.67.65v9.246ZM10.568 13.103c0-.37-.3-.67-.67-.67H.65a.64.64 0 0 0-.649.67 10.589 10.589 0 0 0 9.896 9.896.64.64 0 0 0 .67-.65v-9.246Z" clip-rule="evenodd"/><path fill="#FF62FD" fill-rule="evenodd" d="M10.568 9.898c0 .37-.3.67-.67.67H.65a.64.64 0 0 1-.649-.67A10.589 10.589 0 0 1 9.897 0a.64.64 0 0 1 .67.65v9.247Z" clip-rule="evenodd"/><path fill="#0078FF" fill-rule="evenodd" d="M12.43.67c0-.37.3-.67.67-.67h9.247c.37 0 .672.3.65.67a10.589 10.589 0 0 1-9.897 9.896.64.64 0 0 1-.67-.649V.67Z" clip-rule="evenodd"/><path fill="#121212" d="M39.879 12.964c-.306 1.301-.976 2.36-2.008 3.175-1.033.804-2.219 1.205-3.558 1.205-1.58 0-2.926-.548-4.035-1.645-1.097-1.096-1.645-2.441-1.645-4.035 0-1.569.542-2.9 1.626-3.997 1.083-1.097 2.41-1.645 3.978-1.645 1.377 0 2.588.408 3.634 1.224 1.045.816 1.708 1.893 1.989 3.232h-3.213c-.46-.995-1.25-1.492-2.372-1.492-.74 0-1.332.262-1.779.784-.446.523-.67 1.16-.67 1.913 0 .765.23 1.409.69 1.932.471.51 1.083.765 1.835.765 1.033 0 1.798-.472 2.296-1.416h3.232Zm7.026-3.748c-.816.025-1.441.172-1.875.44-.42.255-.63.758-.63 1.51V17h-3.176V6.385h2.984v1.129h.038c.51-.995 1.396-1.492 2.659-1.492v3.194ZM58.81 17h-3.175v-1.148h-.038c-.268.51-.695.893-1.282 1.148a4.623 4.623 0 0 1-1.817.363c-1.593 0-2.881-.541-3.863-1.625-.982-1.084-1.473-2.436-1.473-4.055 0-1.581.498-2.92 1.492-4.016.995-1.097 2.276-1.645 3.844-1.645.638 0 1.237.127 1.798.382.574.242 1.008.612 1.3 1.11h.039V6.385h3.175V17Zm-3.175-5.317c0-.778-.255-1.422-.765-1.932-.497-.51-1.135-.765-1.913-.765-.765 0-1.396.268-1.893.804-.485.522-.727 1.166-.727 1.931 0 .74.255 1.37.765 1.894.51.522 1.135.784 1.875.784.765 0 1.396-.261 1.893-.784.51-.523.765-1.167.765-1.932Zm15.838-2.888h-1.53V17h-3.175V8.795h-2.735V17h-3.175V8.795h-1.185v-2.41h1.185v-.287c0-2.167 1.352-3.251 4.055-3.251h.478v2.39h-.363c-.14 0-.274.02-.402.058-.127.025-.261.121-.401.287-.128.166-.192.382-.192.65v.153h2.735V2.847h3.175v3.538h1.53v2.41Z"/></svg>
